shader_type particles;
uniform vec4 color = vec4(1.0, 0.0, 0.0, 1.0);

void start() {
	// Called when a particle is spawned.
}

void process() {
	// Called every frame on existing particles (according to the Fixed FPS property).
}
